svg/clockface/clockface/clock_03_40.svg

<?xml version="1.0" encoding="UTF-8" standalone="no"?>
<svg
   height="1000"
   width="1000"
   version="1.1"
   id="clock"
   viewBox="0 0 1000 1000"
   sodipodi:docname="clock_03_40.svg"
   xmlns:inkscape="http://www.inkscape.org/namespaces/inkscape"
   xmlns:sodipodi="http://sodipodi.sourceforge.net/DTD/sodipodi-0.dtd"
   xmlns="http://www.w3.org/2000/svg"
   xmlns:svg="http://www.w3.org/2000/svg">
  <defs
     id="defs10" />
  <sodipodi:namedview
     id="namedview8"
     pagecolor="#505050"
     bordercolor="#ffffff"
     borderopacity="1"
     inkscape:showpageshadow="0"
     inkscape:pageopacity="0"
     inkscape:pagecheckerboard="1"
     inkscape:deskcolor="#505050" />
  <g
     id="container">
    <g
       transform="translate(500,500) rotate(270)"
       id="g4">
      <path
         id="clock_03_40"
         style="color:#000000;fill:#000000;stroke-linecap:round;stroke-linejoin:round;-inkscape-stroke:none"
         d="m -138.91602,-263.57031 a 30,30 0 0 0 -11.08398,3.76172 30,30 0 0 0 -10.98047,40.98242 L -30,8.0390625 V 180 A 30,30 0 0 0 0,210 30,30 0 0 0 30,180 V 0 A 30.003,30.003 0 0 0 25.980469,-15 L -109.01953,-248.82617 a 30,30 0 0 0 -29.89649,-14.74414 z M 370,0 C 370,-203.98981 203.98981,-370 0,-370 -203.98981,-370 -370,-203.98981 -370,0 -370,203.98981 -203.98981,370 0,370 203.98981,370 370,203.98981 370,0 Z M 310,0 C 310,171.56344 171.56344,310 0,310 -171.56344,310 -310,171.56344 -310,0 c 0,-171.56344 138.43656,-310 310,-310 171.56344,0 310,138.43656 310,310 z" />
    </g>
  </g>
</svg>

<svg xmlns="http://www.w3.org/2000/svg" width="1000" height="1000"><path d="M-138.916-263.57A30 30 0 0 0-150-259.81a30 30 0 0 0-10.98 40.983L-30 8.039V180a30 30 0 0 0 30 30 30 30 0 0 0 30-30V0a30.003 30.003 0 0 0-4.02-15l-135-233.826a30 30 0 0 0-29.896-14.744zM370 0c0-203.99-166.01-370-370-370S-370-203.99-370 0-203.99 370 0 370 370 203.99 370 0Zm-60 0c0 171.563-138.437 310-310 310S-310 171.563-310 0-171.563-310 0-310 310-171.563 310 0z" style="-inkscape-stroke:none" transform="rotate(-90 500 0)" stroke-linecap="round" stroke-linejoin="round"/></svg>
